svgs/solid/tally.svg

<svg xmlns="http://www.w3.org/2000/svg" viewBox="0 0 640 512"><!--! Font Awesome Pro 6.4.2 by @fontawesome - https://fontawesome.com License - https://fontawesome.com/license (Commercial License) Copyright 2023 Fonticons, Inc. --><path d="M128 32c17.7 0 32 14.3 32 32V275.6l64-21.3V64c0-17.7 14.3-32 32-32s32 14.3 32 32V232.9l64-21.3V64c0-17.7 14.3-32 32-32s32 14.3 32 32V190.3l64-21.3V64c0-17.7 14.3-32 32-32s32 14.3 32 32v83.6l53.9-18c16.8-5.6 34.9 3.5 40.5 20.2s-3.5 34.9-20.2 40.5L544 215.1V448c0 17.7-14.3 32-32 32s-32-14.3-32-32V236.4l-64 21.3V448c0 17.7-14.3 32-32 32s-32-14.3-32-32V279.1l-64 21.3V448c0 17.7-14.3 32-32 32s-32-14.3-32-32V321.7l-64 21.3V448c0 17.7-14.3 32-32 32s-32-14.3-32-32V364.4l-53.9 18c-16.8 5.6-34.9-3.5-40.5-20.2s3.5-34.9 20.2-40.5L96 296.9V64c0-17.7 14.3-32 32-32z"/></svg>

<svg xmlns="http://www.w3.org/2000/svg" viewBox="0 0 640 512"><!--! Font Awesome Pro 6.1.1 by @fontawesome - https://fontawesome.com License - https://fontawesome.com/license (Commercial License) Copyright 2022 Fonticons, Inc. --><path d="M128 32C145.7 32 160 46.33 160 64V275.6L224 254.3V64C224 46.33 238.3 32 256 32C273.7 32 288 46.33 288 64V232.9L352 211.6V64C352 46.33 366.3 32 384 32C401.7 32 416 46.33 416 64V190.3L480 168.9V64C480 46.33 494.3 32 512 32C529.7 32 544 46.33 544 64V147.6L597.9 129.6C614.6 124.1 632.8 133.1 638.4 149.9C643.9 166.6 634.9 184.8 618.1 190.4L544 215.1V448C544 465.7 529.7 480 512 480C494.3 480 480 465.7 480 448V236.4L416 257.7V448C416 465.7 401.7 480 384 480C366.3 480 352 465.7 352 448V279.1L288 300.4V448C288 465.7 273.7 480 255.1 480C238.3 480 223.1 465.7 223.1 448V321.7L159.1 343.1V448C159.1 465.7 145.7 480 127.1 480C110.3 480 95.1 465.7 95.1 448V364.4L42.12 382.4C25.35 387.9 7.231 378.9 1.642 362.1C-3.947 345.4 5.114 327.2 21.88 321.6L96 296.9V64C96 46.33 110.3 32 128 32V32z"/></svg>
